X: 172
T: Song zhangfu
L: 1/16
M: 3/4
K: E
e c B AF4 [I:setbarnb 1]| 
e c B AF4 | 
B2 B e A F A c | 
B8 | 
A2 A B e f e c | 
B6A2 | 
F2 F2 B c B A | 
F2> A2 F A F E | 
F4=D2 E2 | 
F8 | 
B4C E C B, | 
A2> B2 c A F E | 
C E F G E E2 C | 
B,8 |]

@@@ Tune index: 9046
